X:1
T:In Dir Ist Freude, irr.
T:In Dir Ist Freude, irr.
T:Giovanni Giacomo Gastoldi, 1593
T:Public Domain Courtesy of the Cyber Hymnal™
C:Giovanni Giacomo Gastoldi, 1593
Z:Public Domain
Z:Courtesy of the Cyber Hymnal™
%%score 1 ( 2 3 )
L:1/8
M:3/4
K:F
V:1 treble 
V:2 bass 
V:3 bass 
V:1
|: [Fc]2 [Fc]2 [FB]2 | [FA]4 [CF]2 | [Fc]2 [Fc]2 [FB]2 | [FA]4 [CF]2 | [Fc]4 [FB]2 | %5
 [FA]3 [EG] [DF]2 | [DG]4 [CG]2 | [A,F]6 :| x6 |: [FA]2 [FB]2 [Fc]2 | [Fd]4 [FB]2 | %11
 [Gd]2 [G_e]2 [Fc]2 | [Fd]4 [FB]2 | [Fc]2 [FA]2 [FB]2 | [Ec]4 [Ec]2 | [DB]2 G2 [^FA]2 | %16
 [GB]4 [GB]2 | [FB]2 [FB]2 [FA]2 | [EG]3 [DF] [^CE]2 | [DF]2 [DF]2 [CE]2 | [CF]8 :| %21
V:2
|: [F,A,]2 [A,C]2 [B,D]2 | [F,C]4 [F,A,]2 | [F,A,]2 [A,C]2 [B,D]2 | [F,C]4 [F,A,]2 | %4
 [A,C]4 [B,D]2 | C3- C [D,A,]2 | [B,,G,]4 [C,E,]2 | F,6 :| x6 |: F,2 [D,F,]2 [C,A,]2 | %10
 [B,,B,]4 [D,B,]2 | [G,B,]2 [C,C]2 [F,A,]2 | [B,,B,]4 [B,,D]2 | [F,A,]2 [F,C]2 [D,D]2 | %14
 [C,G,]4 [C,G,]2 | [G,B,]2 [B,D]2 [A,D]2 | [G,D]4 [G,D]2 | [B,D]2 [B,D]2 [F,C]2 | %18
 [C,C]3 [D,A,] [A,,A,]2 | [D,A,]2 [B,,B,]2 [C,G,]2 | [F,A,]8 :| %21
V:3
|: x6 | x6 | x6 | x6 | x6 | x3 C, x2 | x6 | x6 :| x6 |: x6 | x6 | x6 | x6 | x6 | x6 | x6 | x6 | %17
 x6 | x6 | x6 | x8 :| %21

